X:4115
T:Devil in the Kitchen, The
T:Prince of Wales's Jig, The
S:Charlie Menzies
R:Reel
O:Scotland
M:4/4
K:Hp
a>f |\
e>A A/2A/2A eA (3fed | e>A A/2A/2A g2 (3fga |\
e>A A/2A/2A eA (3fed \
|1 B<G B>d g2 :|2 B<G B>d g2 f>g ||
aA A/2A/2A eA A/2A/2A | aA A/2A/2A g2 f>g | \
aA A/2A/2A eA (3fed | B<G B>d g2 f>g |
aA A/2A/2A eA A/2A/2A | aA A/2A/2A g2 f>g | \
(3agf g>e (3faf e>c | B>c d>e f2 ||**
